svg13/polar bear.svg

<?xml version="1.0" encoding="UTF-8" standalone="no"?>
<!DOCTYPE svg PUBLIC "-//W3C//DTD SVG 1.1//EN" "http://www.w3.org/Graphics/SVG/1.1/DTD/svg11.dtd">
<svg width="100%" height="100%" viewBox="0 0 128 128" version="1.1" xmlns="http://www.w3.org/2000/svg" xmlns:xlink="http://www.w3.org/1999/xlink" xml:space="preserve" xmlns:serif="http://www.serif.com/" style="fill-rule:evenodd;clip-rule:evenodd;stroke-miterlimit:10;">
    <g>
        <g>
            <g>
                <g>
                    <path d="M110.2,54.68C110.2,54.68 120.78,49.62 123.29,38.84C125.81,28.05 117.76,21.28 109.73,24.36C100.5,27.89 95.6,35.8 95.6,35.8L110.2,54.68Z" style="fill:white;fill-rule:nonzero;stroke:rgb(145,189,206);stroke-width:3px;"/>
                    <path d="M106.34,52.66C106.34,52.66 113.14,40.95 114.73,36.99C115.89,34.11 115.4,32.78 111.92,34.15C105.86,36.54 97.43,40.03 97.43,40.03L106.34,52.66Z" style="fill:rgb(145,189,206);fill-rule:nonzero;"/>
                </g>
            </g>
            <g>
                <g>
                    <path d="M17.8,54.68C17.8,54.68 7.22,49.62 4.71,38.84C2.2,28.06 10.24,21.28 18.27,24.36C27.5,27.89 32.4,35.8 32.4,35.8L17.8,54.68Z" style="fill:white;fill-rule:nonzero;stroke:rgb(145,189,206);stroke-width:3px;"/>
                    <path d="M21.66,52.66C21.66,52.66 14.86,40.95 13.27,36.99C12.11,34.11 12.6,32.78 16.08,34.15C22.14,36.54 30.57,40.03 30.57,40.03L21.66,52.66Z" style="fill:rgb(145,189,206);fill-rule:nonzero;"/>
                </g>
            </g>
        </g>
        <path d="M116.75,63.09C112,44.79 101.65,31.33 88.08,24.5C80.35,20.61 74.54,22.05 70.08,23.96C67.63,25.01 65.52,25.27 63.82,25.27C62.12,25.27 60.2,25 57.75,23.96C53.29,22.05 47.48,20.6 39.75,24.5C26.18,31.34 15.83,44.79 11.08,63.09C6.28,81.6 13.44,88.85 19.36,94.73C27.97,103.27 46.62,106.16 63.92,105.95C81.22,106.16 99.87,103.27 108.48,94.73C114.39,88.85 121.55,81.6 116.75,63.09Z" style="fill:white;fill-rule:nonzero;stroke:rgb(145,189,206);stroke-width:3px;"/>
        <path d="M83.94,58.62C78.38,44.59 67.83,42.86 64,42.86C60.17,42.86 49.62,44.59 44.06,58.62C41.09,66.12 39.19,71.9 40.41,77.71C42.83,89.28 52.31,94.71 64.01,94.71C75.71,94.71 85.19,89.27 87.61,77.71C88.81,71.9 86.92,66.12 83.94,58.62Z" style="fill:rgb(207,216,220);fill-rule:nonzero;"/>
        <path d="M76.3,73.633C75.045,71.261 72.08,73.713 69.27,72.673C67.63,72.063 66.42,69.93 66.5,68.19C66.59,66.26 66.66,64.17 66.56,63.95C66.32,63.42 64.85,63.04 64.12,63.1L63.88,63.1C63.15,63.04 61.67,63.42 61.44,63.95C61.36,64.14 61.4,65.74 61.47,67.42C61.56,69.52 60.19,72.033 58.24,72.813C55.72,73.813 52.524,71.423 51.7,73.633C51.311,74.677 52.136,75.618 53.779,76.209C54.828,76.586 55.575,76.987 56.954,77.03C60.231,77.131 60.522,76.742 64,76.742C67.478,76.742 67.684,77.123 70.595,77.007C72.484,76.931 73.588,76.265 74.877,75.738C76.318,75.148 76.767,74.515 76.3,73.633Z" style="fill:rgb(35,31,32);fill-rule:nonzero;"/>
        <g>
            <path d="M70.56,52.25C67.59,50.38 61.01,50.46 57.2,52.25C55.38,53.1 51.22,57.37 52.4,61.93C52.91,63.91 54.32,65.5 55.79,66.39C57.6,67.48 63.29,68.89 63.88,68.88C64.47,68.89 70.41,67.23 72.22,66.14C73.69,65.25 75.1,63.66 75.61,61.68C76.8,57.13 72.26,53.32 70.56,52.25Z" style="fill:rgb(35,31,32);fill-rule:nonzero;"/>
        </g>
        <g>
            <g>
                <circle cx="87.28" cy="47.24" r="4.42" style="fill:rgb(35,31,32);"/>
            </g>
            <g>
                <circle cx="40.72" cy="47.24" r="4.42" style="fill:rgb(35,31,32);"/>
            </g>
        </g>
    </g>
</svg>

<?xml version="1.0" encoding="utf-8"?>
<!-- Generator: Adobe Illustrator 24.1.2, SVG Export Plug-In . SVG Version: 6.00 Build 0)  -->
<svg version="1.1" id="Layer_5" xmlns="http://www.w3.org/2000/svg" xmlns:xlink="http://www.w3.org/1999/xlink" x="0px" y="0px"
	 viewBox="0 0 128 128" style="enable-background:new 0 0 128 128;" xml:space="preserve">
<g>
	<g>
		<g>
			<g>
				<path style="fill:#FFFFFF;stroke:#91BDCE;stroke-width:3;stroke-miterlimit:10;" d="M110.2,54.68c0,0,10.58-5.06,13.09-15.84
					c2.52-10.79-5.53-17.56-13.56-14.48C100.5,27.89,95.6,35.8,95.6,35.8L110.2,54.68z"/>
				<path style="fill:#91BDCE;" d="M106.34,52.66c0,0,6.8-11.71,8.39-15.67c1.16-2.88,0.67-4.21-2.81-2.84
					c-6.06,2.39-14.49,5.88-14.49,5.88L106.34,52.66z"/>
			</g>
		</g>
		<g>
			<g>
				<path style="fill:#FFFFFF;stroke:#91BDCE;stroke-width:3;stroke-miterlimit:10;" d="M17.8,54.68c0,0-10.58-5.06-13.09-15.84
					s5.53-17.56,13.56-14.48C27.5,27.89,32.4,35.8,32.4,35.8L17.8,54.68z"/>
				<path style="fill:#91BDCE;" d="M21.66,52.66c0,0-6.8-11.71-8.39-15.67c-1.16-2.88-0.67-4.21,2.81-2.84
					c6.06,2.39,14.49,5.88,14.49,5.88L21.66,52.66z"/>
			</g>
		</g>
	</g>
	<path style="fill:#FFFFFF;stroke:#91BDCE;stroke-width:3;stroke-miterlimit:10;" d="M116.75,63.09
		c-4.75-18.3-15.1-31.76-28.67-38.59c-7.73-3.89-13.54-2.45-18-0.54c-2.45,1.05-4.56,1.31-6.26,1.31s-3.62-0.27-6.07-1.31
		c-4.46-1.91-10.27-3.36-18,0.54c-13.57,6.84-23.92,20.29-28.67,38.59c-4.8,18.51,2.36,25.76,8.28,31.64
		c8.61,8.54,27.26,11.43,44.56,11.22c17.3,0.21,35.95-2.68,44.56-11.22C114.39,88.85,121.55,81.6,116.75,63.09z"/>
	<path style="fill:#CFD8DC;" d="M83.94,58.62C78.38,44.59,67.83,42.86,64,42.86s-14.38,1.73-19.94,15.76
		c-2.97,7.5-4.87,13.28-3.65,19.09c2.42,11.57,11.9,17,23.6,17s21.18-5.44,23.6-17C88.81,71.9,86.92,66.12,83.94,58.62z"/>
	<path style="fill:#231F20;" d="M75.42,75.07c-1.19-0.9-3.34-2.1-6.15-3.14c-1.64-0.61-2.85-2-2.77-3.74
		c0.09-1.93,0.16-4.02,0.06-4.24c-0.24-0.53-1.71-0.91-2.44-0.85c-0.04,0-0.08,0-0.12,0c-0.04,0-0.08,0-0.12,0
		c-0.73-0.06-2.21,0.32-2.44,0.85c-0.08,0.19-0.04,1.79,0.03,3.47c0.09,2.1-1.28,3.87-3.23,4.65c-2.52,1-4.54,2.16-5.65,3.01
		c-0.68,0.51-1.22,1.5-0.89,2.39c0.43,1.14,2.34,0.98,3.42,0.49c2.9-1.32,5.57-2.01,8.88-2.01c3.32,0,5.98,0.69,8.88,2.01
		c1.08,0.49,2.99,0.65,3.42-0.49C76.64,76.57,76.1,75.58,75.42,75.07z"/>
	<g>
		<path style="fill:#231F20;" d="M70.56,52.25c-2.97-1.87-9.55-1.79-13.36,0c-1.82,0.85-5.98,5.12-4.8,9.68
			c0.51,1.98,1.92,3.57,3.39,4.46c1.81,1.09,7.5,2.5,8.09,2.49c0.59,0.01,6.53-1.65,8.34-2.74c1.47-0.89,2.88-2.48,3.39-4.46
			C76.8,57.13,72.26,53.32,70.56,52.25z"/>
	</g>
	<g>
		<g>
			<circle style="fill:#231F20;" cx="87.28" cy="47.24" r="4.42"/>
		</g>
		<g>
			<circle style="fill:#231F20;" cx="40.72" cy="47.24" r="4.42"/>
		</g>
	</g>
</g>
</svg>
